public/logos/Q2.svg

<?xml version="1.0" encoding="UTF-8"?>
<svg xmlns="http://www.w3.org/2000/svg" xmlns:xlink="http://www.w3.org/1999/xlink" width="176pt" height="32.24pt" viewBox="0 0 176 32.24" version="1.1">
<defs>
<clipPath id="clip1">
  <path d="M 0 0 L 99 0 L 99 32.238281 L 0 32.238281 Z M 0 0 "/>
</clipPath>
</defs>
<g id="surface1">
<g clip-path="url(#clip1)" clip-rule="nonzero">
<path style=" stroke:none;fill-rule:nonzero;fill:rgb(81.492615%,8.843994%,28.419495%);fill-opacity:1;" d="M 81.464844 19.6875 C 81.238281 20.234375 80.960938 20.828125 80.636719 21.40625 C 80.261719 22.101562 79.84375 22.78125 79.375 23.390625 C 79.191406 23.640625 78.996094 23.875 78.804688 24.097656 C 77.59375 25.519531 76.523438 25.210938 77.160156 23.160156 C 77.570312 21.785156 78.363281 20.429688 79.375 19.390625 C 79.414062 19.328125 79.46875 19.289062 79.523438 19.246094 C 79.90625 18.847656 80.296875 18.53125 80.636719 18.3125 C 81.59375 17.683594 82.175781 17.851562 81.464844 19.6875 Z M 52.867188 19.097656 C 52.195312 19.800781 51.390625 20.511719 50.539062 21.121094 C 50.03125 21.5 49.488281 21.824219 48.957031 22.101562 C 47.292969 22.949219 46.679688 22.527344 48.027344 20.882812 C 48.710938 20.039062 49.578125 19.289062 50.539062 18.722656 C 50.910156 18.519531 51.28125 18.332031 51.660156 18.175781 C 53.566406 17.410156 54.699219 17.160156 52.867188 19.097656 Z M 98.050781 3.238281 C 97.941406 2.425781 97.433594 1.597656 96.683594 1.054688 C 96.453125 0.886719 96.199219 0.734375 95.921875 0.605469 C 95.855469 0.578125 95.773438 0.554688 95.691406 0.539062 C 95.355469 0.414062 94.96875 0.347656 94.578125 0.347656 C 93.878906 0.347656 93.207031 0.605469 92.5625 1.074219 C 91.902344 1.558594 91.242188 2.25 90.636719 3.085938 C 87.816406 6.933594 85.617188 13.796875 84.171875 16.597656 C 83.15625 15.898438 82.585938 14.738281 81.464844 14.738281 C 81.214844 14.738281 80.925781 14.804688 80.636719 14.917969 C 80.261719 15.078125 79.824219 15.328125 79.375 15.644531 C 76.75 17.507812 73.40625 21.75 72.96875 23.644531 C 68.222656 25.375 70.621094 19.707031 71.550781 17.289062 C 73.039062 13.433594 75.59375 9.070312 78.234375 7.71875 C 78.488281 7.585938 78.917969 7.292969 79.375 6.910156 C 79.789062 6.574219 80.234375 6.167969 80.636719 5.746094 C 81.351562 5 81.90625 4.199219 81.90625 3.585938 C 81.90625 1.441406 81.429688 0.492188 80.636719 0.355469 C 80.28125 0.300781 79.859375 0.414062 79.375 0.667969 C 75.941406 2.515625 70.136719 11.664062 69.527344 12.703125 C 67.886719 15.429688 63.792969 21.296875 60.308594 23.34375 C 58.078125 24.644531 57.285156 23.019531 59.027344 20.472656 C 60.101562 18.859375 61.507812 18.546875 61.507812 17.816406 C 61.507812 15.785156 59.621094 15.421875 58.347656 16.203125 C 57.847656 16.515625 57.578125 16.523438 56.699219 17.320312 C 56.074219 15.953125 54.476562 15 52.726562 15 C 52.15625 15 51.386719 15.269531 50.539062 15.746094 C 47.261719 17.5625 42.730469 22.230469 42.535156 24.519531 C 41.058594 24.519531 39.394531 24.683594 38.976562 22.78125 C 38.425781 20.222656 40.433594 15.652344 40.742188 14.726562 C 41.253906 13.285156 41.574219 12.136719 40.175781 11.207031 C 37.554688 9.496094 33.714844 13.449219 31.558594 14.96875 C 30.15625 15.984375 28.992188 16.847656 28.59375 17.160156 C 27.152344 18.265625 23.769531 21.203125 21.195312 22.691406 C 18.960938 23.972656 18.65625 23.71875 19.550781 21.296875 C 20.578125 18.515625 22.617188 15.523438 22.617188 13.351562 C 22.617188 7.269531 17.1875 12.542969 15.03125 13.148438 C 16.429688 11.085938 19.917969 5.441406 21.410156 3.511719 C 22.273438 2.398438 22.632812 1.082031 21.636719 0.429688 C 21.167969 0.128906 20.746094 0.00390625 20.359375 0.00390625 L 20.320312 0.00390625 C 19.398438 0.0195312 18.679688 0.773438 17.945312 1.628906 C 13.320312 7.078125 0 28.710938 0 30.988281 C 0 31.570312 0.722656 31.894531 1.476562 32.101562 C 3.257812 32.589844 4.214844 31.75 5.15625 30.195312 C 7.867188 25.734375 10.625 20.011719 15.570312 16.804688 C 18.0625 15.183594 17.84375 15.789062 16.792969 18.261719 C 16.261719 19.519531 15.679688 20.59375 15.316406 22.070312 C 14.035156 27.171875 18.0625 29.136719 22.074219 26.574219 C 25.433594 24.4375 30.617188 19.867188 33.742188 17.628906 C 35.96875 15.996094 35.234375 17.121094 35.003906 19.308594 C 34.628906 22.746094 35.167969 26.265625 38.035156 27.4375 C 40.460938 28.453125 44.648438 27.742188 47.074219 27.097656 C 48.449219 26.71875 49.570312 26.25 50.539062 25.800781 C 51.683594 25.28125 52.589844 24.773438 53.398438 24.492188 C 54.4375 28.453125 57.246094 28.027344 59.839844 26.300781 C 62.1875 24.730469 65.160156 22.332031 66.078125 21.710938 C 66.078125 28.003906 68.859375 28.914062 73.320312 26.484375 C 74.300781 27.160156 74.816406 27.875 76.480469 27.875 L 77.382812 27.875 C 77.828125 27.875 78.574219 27.601562 79.375 27.242188 C 79.792969 27.050781 80.222656 26.839844 80.636719 26.621094 C 80.878906 26.492188 81.117188 26.371094 81.324219 26.25 C 82.507812 25.582031 82.5625 25.714844 83.742188 26.523438 C 89.035156 30.238281 86.777344 25.234375 86.761719 23.050781 C 86.738281 20.078125 87.421875 17.089844 88.5625 14.136719 C 88.753906 13.636719 89.59375 11.679688 90.636719 9.628906 C 91.234375 8.4375 91.914062 7.214844 92.5625 6.191406 C 93.796875 4.265625 94.96875 3.132812 95.472656 4.515625 C 95.550781 4.695312 95.621094 4.851562 95.691406 4.984375 C 95.769531 5.128906 95.84375 5.25 95.921875 5.34375 C 96.167969 5.625 96.429688 5.726562 96.683594 5.714844 C 97.480469 5.675781 98.21875 4.398438 98.050781 3.238281 "/>
</g>
<path style=" stroke:none;fill-rule:nonzero;fill:rgb(81.492615%,8.843994%,28.419495%);fill-opacity:1;" d="M 93.242188 23.554688 C 93.242188 22.253906 94.761719 20.644531 95.691406 18.921875 C 95.777344 18.769531 95.863281 18.621094 95.921875 18.453125 C 96.210938 17.84375 96.417969 17.21875 96.417969 16.589844 C 96.417969 16.339844 96.210938 16.183594 95.921875 15.988281 L 95.691406 15.84375 C 95.589844 15.777344 95.472656 15.71875 95.371094 15.644531 C 94.136719 14.828125 93.472656 14.746094 92.5625 15.9375 C 91.976562 16.722656 91.269531 17.855469 90.636719 19.046875 C 89.59375 21.027344 88.707031 23.148438 88.707031 24.027344 C 88.707031 25.441406 89.59375 26.746094 90.636719 27.351562 C 91.035156 27.597656 91.46875 27.722656 91.886719 27.722656 C 92.144531 27.722656 92.367188 27.71875 92.5625 27.695312 C 95.171875 27.394531 93.242188 25.234375 93.242188 23.554688 "/>
<path style=" stroke:none;fill-rule:nonzero;fill:rgb(81.492615%,8.843994%,28.419495%);fill-opacity:1;" d="M 96.683594 8.453125 C 96.417969 8.503906 96.148438 8.628906 95.921875 8.796875 C 95.84375 8.863281 95.757812 8.949219 95.691406 9.027344 C 95.453125 9.320312 95.3125 9.710938 95.3125 10.191406 C 95.3125 10.425781 95.453125 10.773438 95.691406 11.128906 C 95.757812 11.238281 95.84375 11.339844 95.921875 11.445312 C 96.148438 11.707031 96.402344 11.921875 96.683594 12.125 C 97.003906 12.324219 97.34375 12.453125 97.710938 12.453125 C 98.328125 12.453125 98.988281 11.527344 98.988281 10.761719 C 98.988281 8.992188 97.734375 8.269531 96.683594 8.453125 "/>
<path style=" stroke:none;fill-rule:nonzero;fill:rgb(81.492615%,8.843994%,28.419495%);fill-opacity:1;" d="M 96.683594 26.925781 C 97.414062 27.460938 98.394531 27.742188 99.390625 27.742188 C 102.03125 27.742188 107.648438 21.566406 109.648438 17.742188 C 109.714844 17.574219 109.804688 17.410156 109.882812 17.257812 C 109.96875 17.054688 110.035156 16.863281 110.117188 16.675781 C 110.261719 16.269531 110.359375 15.894531 110.359375 15.601562 C 110.359375 15.238281 110.261719 14.925781 110.117188 14.671875 C 110.035156 14.566406 109.96875 14.464844 109.882812 14.375 C 109.804688 14.300781 109.714844 14.242188 109.648438 14.1875 C 109.257812 13.9375 108.746094 13.804688 108.167969 13.804688 C 106.757812 13.804688 106.492188 14.886719 106.210938 15.875 C 105.53125 18.289062 103.230469 20.789062 101.519531 22.183594 C 100.675781 22.875 100.613281 22.972656 101.175781 21.984375 L 102.460938 19.652344 C 103.140625 18.609375 104.414062 14.777344 101.589844 15.148438 L 99.84375 15.601562 C 98.808594 16.1875 99.097656 16.226562 98.808594 17.320312 C 98.40625 18.78125 97.480469 19.921875 96.683594 21.105469 C 96.402344 21.542969 96.148438 21.984375 95.921875 22.441406 C 95.84375 22.640625 95.757812 22.84375 95.691406 23.066406 C 95.539062 23.527344 95.453125 24.039062 95.453125 24.597656 C 95.453125 25.019531 95.539062 25.398438 95.691406 25.746094 C 95.757812 25.890625 95.84375 26.042969 95.921875 26.171875 C 96.121094 26.460938 96.378906 26.71875 96.683594 26.925781 "/>
<path style=" stroke:none;fill-rule:nonzero;fill:rgb(81.492615%,8.843994%,28.419495%);fill-opacity:1;" d="M 116.53125 18.605469 C 116.605469 18.453125 116.679688 18.3125 116.730469 18.164062 C 116.8125 18.003906 116.867188 17.84375 116.917969 17.671875 C 117.027344 17.308594 117.09375 16.953125 117.09375 16.589844 C 117.09375 16.4375 117.019531 16.324219 116.917969 16.21875 C 116.867188 16.167969 116.8125 16.125 116.730469 16.085938 C 116.679688 16.035156 116.605469 15.996094 116.53125 15.945312 C 116.394531 15.851562 116.230469 15.753906 116.050781 15.644531 C 114.824219 14.828125 114.171875 14.746094 113.246094 15.9375 C 112.21875 17.273438 110.914062 19.675781 110.117188 21.582031 C 110.019531 21.789062 109.953125 21.992188 109.882812 22.183594 C 109.78125 22.421875 109.703125 22.652344 109.648438 22.867188 C 109.480469 23.328125 109.398438 23.742188 109.398438 24.027344 C 109.398438 24.464844 109.480469 24.890625 109.648438 25.3125 C 109.703125 25.492188 109.78125 25.667969 109.882812 25.828125 C 109.953125 25.964844 110.019531 26.089844 110.117188 26.214844 C 110.746094 27.121094 111.691406 27.722656 112.558594 27.722656 C 116.152344 27.722656 113.921875 25.347656 113.921875 23.554688 C 113.921875 22.171875 115.625 20.433594 116.53125 18.605469 "/>
<path style=" stroke:none;fill-rule:nonzero;fill:rgb(81.492615%,8.843994%,28.419495%);fill-opacity:1;" d="M 116.730469 11.59375 C 116.792969 11.652344 116.847656 11.714844 116.917969 11.761719 C 117.335938 12.160156 117.851562 12.453125 118.378906 12.453125 C 119.007812 12.453125 119.675781 11.527344 119.675781 10.761719 C 119.675781 8.734375 118.003906 8.082031 116.917969 8.605469 C 116.847656 8.628906 116.792969 8.675781 116.730469 8.710938 C 116.660156 8.746094 116.601562 8.804688 116.53125 8.855469 C 116.207031 9.160156 115.976562 9.59375 115.976562 10.191406 C 115.976562 10.480469 116.195312 10.929688 116.53125 11.363281 C 116.601562 11.445312 116.660156 11.519531 116.730469 11.59375 "/>
<path style=" stroke:none;fill-rule:nonzero;fill:rgb(81.492615%,8.843994%,28.419495%);fill-opacity:1;" d="M 123.410156 22.457031 C 123.082031 22.714844 122.734375 22.949219 122.371094 23.121094 C 120.8125 23.917969 120.226562 23.527344 121.488281 21.984375 C 122.023438 21.316406 122.6875 20.511719 123.410156 19.867188 C 123.488281 19.816406 123.566406 19.75 123.632812 19.691406 C 127.535156 16.574219 126.078125 20.40625 123.410156 22.457031 Z M 174.761719 24.570312 C 172.371094 23.824219 169.898438 22.445312 169.21875 22.164062 C 166.414062 20.992188 164.953125 19.921875 162.730469 18.046875 C 157.339844 13.433594 153.558594 19.070312 146.921875 22.640625 C 145.226562 23.566406 144.425781 23.808594 144.964844 21.441406 C 145.359375 19.746094 146.164062 19.277344 146.167969 17.382812 C 146.1875 15.691406 144.445312 14.539062 143.148438 15.59375 C 141.4375 16.996094 137.207031 21.566406 133.652344 23.859375 C 132.5625 24.5625 131.558594 25.210938 130.847656 23.59375 C 130.421875 22.609375 130.253906 21.742188 130.847656 20.527344 C 131.257812 19.6875 132.289062 18.914062 132.289062 17.90625 C 132.289062 17.402344 130.996094 16.035156 130.0625 16.035156 C 129.183594 16.035156 128.660156 16.914062 128.121094 17.234375 C 126.851562 16.347656 126.566406 15.367188 124.5 15.355469 C 124.179688 15.355469 123.804688 15.429688 123.410156 15.585938 C 121.1875 16.449219 118.15625 19.59375 116.917969 22.441406 C 116.84375 22.601562 116.792969 22.746094 116.730469 22.882812 C 116.660156 23.085938 116.597656 23.289062 116.53125 23.492188 C 116.3125 24.277344 116.269531 25.019531 116.445312 25.652344 C 116.488281 25.746094 116.492188 25.828125 116.53125 25.925781 C 116.597656 26.054688 116.660156 26.1875 116.730469 26.304688 C 116.792969 26.390625 116.84375 26.460938 116.917969 26.542969 C 117.421875 27.121094 118.328125 27.417969 119.863281 27.425781 C 121.464844 27.4375 122.496094 27.214844 123.410156 26.765625 C 124.042969 26.476562 124.617188 26.085938 125.316406 25.589844 C 126.246094 24.945312 126.542969 24.253906 127.289062 25.375 C 127.582031 25.804688 127.867188 26.355469 128.148438 26.796875 C 130.1875 30.023438 137.136719 24.265625 139.9375 22.101562 C 141.035156 21.25 140.71875 21.714844 140.707031 22.910156 C 140.695312 24.914062 141.6875 26.234375 143.09375 27.089844 C 144.714844 28.09375 145.957031 27.417969 147.492188 26.667969 C 150.636719 25.132812 154.175781 22.003906 156.714844 20.839844 C 158.910156 19.851562 159.40625 20.132812 161.316406 21.480469 C 164.414062 23.644531 167.96875 26.054688 171.621094 27.351562 C 173.910156 28.164062 175.722656 27.207031 176 26.15625 L 176 25.585938 C 175.882812 25.183594 175.492188 24.8125 174.761719 24.570312 "/>
</g>
</svg>

<svg xmlns="http://www.w3.org/2000/svg" width="176pt" height="42.987" viewBox="0 0 176 32.24"><defs><clipPath id="a"><path d="M0 0h99v32.238H0Zm0 0"/></clipPath></defs><g clip-path="url(#a)"><path d="M81.465 19.688c-.227.546-.504 1.14-.828 1.718a14.7 14.7 0 0 1-1.832 2.692c-1.211 1.422-2.282 1.113-1.645-.938a9.4 9.4 0 0 1 2.215-3.77c.04-.062.094-.1.148-.144a6.4 6.4 0 0 1 1.114-.933c.957-.63 1.539-.461.828 1.375m-28.598-.59a17 17 0 0 1-2.328 2.023c-.508.379-1.05.703-1.582.98-1.664.848-2.277.426-.93-1.218a9.4 9.4 0 0 1 2.512-2.16c.371-.203.742-.391 1.121-.547 1.906-.766 3.04-1.016 1.207.922m45.184-15.86c-.11-.812-.617-1.64-1.367-2.183a4.6 4.6 0 0 0-.762-.45 1.2 1.2 0 0 0-.23-.066 3.2 3.2 0 0 0-1.114-.191c-.7 0-1.371.257-2.016.726-.66.485-1.32 1.176-1.925 2.012-2.82 3.848-5.02 10.71-6.465 13.512-1.016-.7-1.586-1.86-2.707-1.86-.25 0-.54.067-.828.18-.375.16-.813.41-1.262.727-2.625 1.863-5.969 6.105-6.406 8-4.746 1.73-2.348-3.938-1.418-6.356 1.488-3.855 4.043-8.219 6.683-9.57.254-.133.684-.426 1.141-.809.414-.336.86-.742 1.262-1.164.715-.746 1.27-1.547 1.27-2.16 0-2.145-.477-3.094-1.27-3.23-.356-.055-.778.058-1.262.312-3.434 1.848-9.238 10.996-9.848 12.035-1.64 2.727-5.734 8.594-9.218 10.64-2.23 1.302-3.024-.323-1.282-2.87 1.075-1.614 2.48-1.926 2.48-2.657 0-2.03-1.886-2.394-3.16-1.613-.5.313-.769.32-1.648 1.117-.625-1.367-2.222-2.32-3.972-2.32-.57 0-1.34.27-2.188.746-3.277 1.816-7.809 6.484-8.004 8.774-1.476 0-3.14.164-3.558-1.739-.551-2.558 1.457-7.129 1.765-8.054.512-1.442.832-2.59-.566-3.52-2.621-1.71-6.461 2.242-8.617 3.762a136 136 0 0 0-2.965 2.191c-1.442 1.106-4.824 4.043-7.399 5.531-2.234 1.282-2.539 1.028-1.644-1.394 1.027-2.781 3.066-5.774 3.066-7.945 0-6.082-5.43-.809-7.586-.204 1.399-2.062 4.887-7.707 6.38-9.636.862-1.114 1.222-2.43.226-3.082-.469-.301-.89-.426-1.278-.426h-.039c-.922.016-1.64.77-2.375 1.625C13.32 7.079 0 28.71 0 30.989c0 .581.723.906 1.477 1.113 1.78.488 2.738-.352 3.68-1.907 2.71-4.46 5.468-10.183 10.413-13.39 2.492-1.621 2.274-1.016 1.223 1.457-.531 1.258-1.113 2.332-1.477 3.808-1.28 5.102 2.746 7.067 6.758 4.504 3.36-2.137 8.543-6.707 11.668-8.945 2.227-1.633 1.492-.508 1.262 1.68-.375 3.437.164 6.957 3.031 8.128 2.426 1.016 6.613.305 9.04-.34a22 22 0 0 0 3.464-1.296c1.145-.52 2.05-1.028 2.86-1.309 1.038 3.961 3.847 3.535 6.44 1.809 2.349-1.57 5.321-3.969 6.24-4.59 0 6.293 2.78 7.203 7.241 4.773.98.676 1.496 1.391 3.16 1.391h.903c.445 0 1.191-.273 1.992-.633.418-.191.848-.402 1.262-.62.242-.13.48-.25.687-.372 1.184-.668 1.239-.535 2.418.273 5.293 3.715 3.035-1.289 3.02-3.472-.024-2.973.66-5.961 1.8-8.914.192-.5 1.032-2.457 2.075-4.508a41 41 0 0 1 1.925-3.438c1.235-1.925 2.407-3.058 2.91-1.675q.117.27.22.468c.078.145.152.266.23.36.246.281.508.383.762.37.796-.038 1.535-1.316 1.367-2.476" style="stroke:none;fill-rule:nonzero;fill:#d01748;fill-opacity:1"/></g><path d="M93.242 23.555c0-1.301 1.52-2.91 2.45-4.633.085-.152.171-.3.23-.469.289-.61.496-1.234.496-1.863 0-.25-.207-.406-.496-.602l-.23-.144c-.102-.067-.22-.125-.32-.2-1.235-.816-1.9-.898-2.81.293-.585.786-1.292 1.918-1.925 3.11-1.043 1.98-1.93 4.101-1.93 4.98 0 1.414.887 2.72 1.93 3.325a2.4 2.4 0 0 0 1.25.37c.258 0 .48-.003.675-.027 2.61-.3.68-2.46.68-4.14M96.684 8.453c-.266.05-.536.176-.762.344a2 2 0 0 0-.23.23c-.239.293-.38.684-.38 1.164 0 .235.141.582.38.938.066.11.152.21.23.316.226.262.48.477.762.68.32.2.66.328 1.027.328.617 0 1.277-.926 1.277-1.691 0-1.77-1.254-2.492-2.304-2.309M96.684 26.926c.73.535 1.71.816 2.707.816 2.64 0 8.257-6.176 10.257-10 .067-.168.157-.332.235-.484.086-.203.152-.395.234-.582.145-.406.242-.781.242-1.074 0-.364-.097-.676-.242-.93-.082-.106-.148-.207-.234-.297-.078-.074-.168-.133-.235-.187-.39-.25-.902-.383-1.48-.383-1.41 0-1.676 1.082-1.957 2.07-.68 2.414-2.98 4.914-4.691 6.309-.844.691-.907.789-.344-.2l1.285-2.332c.68-1.043 1.953-4.875-.871-4.504l-1.746.454c-1.035.585-.746.625-1.035 1.718-.403 1.461-1.329 2.602-2.125 3.785-.282.438-.536.88-.762 1.336-.078.2-.164.403-.23.625a4.9 4.9 0 0 0-.239 1.532c0 .422.086.8.238 1.148.067.145.153.297.23.426.2.289.458.547.763.754M116.531 18.605c.074-.152.149-.293.2-.44.082-.161.136-.321.187-.493a3.7 3.7 0 0 0 .176-1.082c0-.152-.074-.266-.176-.371a.6.6 0 0 0-.188-.133c-.05-.05-.125-.09-.199-.14-.136-.094-.3-.192-.48-.301-1.227-.817-1.88-.899-2.805.293-1.027 1.335-2.332 3.738-3.129 5.644-.097.207-.164.41-.234.602q-.153.359-.235.683c-.168.461-.25.875-.25 1.16q-.001.655.25 1.285c.055.18.133.356.235.516.07.137.137.262.234.387.63.906 1.574 1.508 2.442 1.508 3.593 0 1.363-2.375 1.363-4.168 0-1.383 1.703-3.121 2.61-4.95M116.73 11.594c.063.058.118.12.188.168.418.398.934.691 1.46.691.63 0 1.298-.926 1.298-1.691 0-2.028-1.672-2.68-2.758-2.157-.07.024-.125.07-.188.106-.07.035-.128.094-.199.144-.324.305-.554.739-.554 1.336 0 .29.218.739.554 1.172.07.082.13.157.2.23M123.41 22.457a5.6 5.6 0 0 1-1.039.664c-1.558.797-2.144.406-.883-1.137.535-.668 1.2-1.472 1.922-2.117.078-.05.156-.117.223-.176 3.902-3.117 2.445.715-.223 2.766m51.352 2.113c-2.39-.746-4.864-2.125-5.543-2.406-2.805-1.172-4.266-2.242-6.489-4.117-5.39-4.613-9.171 1.023-15.808 4.594-1.695.925-2.496 1.168-1.957-1.2.394-1.695 1.2-2.164 1.203-4.058.02-1.692-1.723-2.844-3.02-1.79-1.71 1.403-5.941 5.973-9.496 8.266-1.09.703-2.093 1.352-2.804-.265-.426-.985-.594-1.852 0-3.067.41-.84 1.441-1.613 1.441-2.62 0-.505-1.293-1.872-2.226-1.872-.88 0-1.403.88-1.942 1.2-1.27-.887-1.555-1.868-3.621-1.88-.32 0-.695.075-1.09.23-2.222.864-5.254 4.009-6.492 6.856-.074.16-.125.305-.188.442-.07.203-.132.406-.199.61-.219.784-.261 1.527-.086 2.16.043.093.047.175.086.273.067.129.13.262.2.379.062.086.113.156.187.238.504.578 1.41.875 2.945.883 1.602.012 2.633-.211 3.547-.66.633-.29 1.207-.68 1.906-1.176.93-.645 1.227-1.336 1.973-.215.293.43.578.98.86 1.422 2.038 3.226 8.988-2.531 11.789-4.695 1.097-.852.78-.387.769.808-.012 2.004.98 3.324 2.387 4.18 1.62 1.004 2.863.328 4.398-.422 3.145-1.535 6.684-4.664 9.223-5.828 2.195-.988 2.691-.707 4.601.64 3.098 2.165 6.653 4.575 10.305 5.872 2.29.812 4.102-.145 4.379-1.196v-.57c-.117-.402-.508-.773-1.238-1.016" style="stroke:none;fill-rule:nonzero;fill:#d01748;fill-opacity:1"/></svg>
